packages/heroicons/src/prism/envelope2.svg

<!-- Generated by IcoMoon.io -->
<svg version="1.1" xmlns="http://www.w3.org/2000/svg" width="16" height="16" viewBox="0 0 16 16">
<title>envelope2</title>
<path fill="#4a4a4a" d="M15 2h-14c-0.55 0-1 0.45-1 1v10c0 0.55 0.45 1 1 1h14c0.55 0 1-0.45 1-1v-10c0-0.55-0.45-1-1-1zM14 4v0.719l-6 3.536-6-3.536v-0.719h12zM2 12v-5.54l6 3.536 6-3.536v5.54h-12z"></path>
</svg>

<svg xmlns="http://www.w3.org/2000/svg" aria-hidden="true" fill="currentColor" viewBox="0 0 16 16">
  <path d="M15 2H1c-.55 0-1 .45-1 1v10c0 .55.45 1 1 1h14c.55 0 1-.45 1-1V3c0-.55-.45-1-1-1zm-1 2v.719L8 8.255 2 4.719V4h12zM2 12V6.46l6 3.536 6-3.536V12H2z"/>
</svg>
